X:1
T:Gelobt Sei Gott, 888 with alleluias
T:Melchior Vulpius (ca. circa 1560-1615)
T:Gelobt Sei Gott, 888 with alleluias
T:Public Domain
C:Melchior Vulpius (ca. circa 1560-1615)
Z:Public Domain
%%score ( 1 2 ) ( 3 4 )
L:1/8
M:3/4
K:C
V:1 treble 
V:2 treble 
V:3 bass 
V:4 bass 
V:1
 c2 B2 [FA]2 | [DG]4 G2 | A4 B2 | [Gc]6 | [Ac]2 [Ac]2 [Ad]2 | (D2 C2) [Ac]2 | B2 z2 ^F2 x2 | %7
 [DG]6 | G2 E2 A2 | (B,2 C2) z B, | E2 z2 B,2 x2 | C6 | [Gc]2 [Gc]2 [GB]2 | (c3 B [FA]2) | %14
 [DG]2 [DG]2 [D^F]2 | (D2 z F [CE]2) | [A,D]2 [G,C]2 [G,B,]2 | [G,C]6 |] %18
V:2
 G4 x2 | x4 G2 | F6 | x6 | x6 | G4 x2 | G4 A4 | x6 | C6 | G4 c2 | C4 D4 | C6 | x6 | E4 x2 | x6 | %15
 G3 B,2 x | x6 | x6 |] %18
V:3
 [C,E]2 [E,E]2 [F,C]2 | (G,2 F,2) [E,C]2 | (F,2 E,2) [D,D]2 | (A,,2 C2 B,2) | E2 z G, [F,D]2 | %5
 [F,B,]2 [E,C]2 [A,,E]2 | [B,,D]2 ([C,E]2 [E,D]2) x2 | (G,,2 G,2 F,2) | [E,C]2 [E,,G,]2 [F,,F,]2 | %9
 ([F,,D,]2 [E,,E,]2) [D,,F,]2 | [E,,G,]2 ([F,,A,]2 [G,,G,]2) x2 | (z2 E,2 G,2) | %12
 [CE]2 [CE]2 [G,D]2 | (A,3 G, F,2) | [G,B,]2 [G,B,]2 [D,A,]2 | (B,,2 G,,2 [A,,C,]2) | %16
 [F,,F,]2 [G,,E,]2 [G,,D,]2 | [C,E,]6 |] %18
V:4
 x6 | B,4 x2 | C4 x2 | E6 | A,3 E2 x | x6 | x8 | B,6 | x6 | x6 | x8 | [C,E,]6 | x6 | C4 x2 | x6 | %15
 G,4 x2 | x6 | x6 |] %18

